material/.icons/material/case-sensitive-alt.svg

<svg xmlns="http://www.w3.org/2000/svg" viewBox="0 0 24 24"><path d="M20 14c0-1.5-.5-2-2-2h-2v-1c0-1 0-1-2-1v9h4c1.5 0 2-.53 2-2v-3m-8-2c0-1.5-.53-2-2-2H6c-1.5 0-2 .5-2 2v7h2v-3h4v3h2v-7m-2-5h4V5h-4v2m12 2v11c0 1.11-.89 2-2 2H4a2 2 0 01-2-2V9c0-1.11.89-2 2-2h4V5l2-2h4l2 2v2h4a2 2 0 012 2m-6 8h2v-3h-2v3M6 12h4v2H6v-2z"/></svg>

<?xml version="1.0" encoding="UTF-8"?><!DOCTYPE svg PUBLIC "-//W3C//DTD SVG 1.1//EN" "http://www.w3.org/Graphics/SVG/1.1/DTD/svg11.dtd"><svg xmlns="http://www.w3.org/2000/svg" xmlns:xlink="http://www.w3.org/1999/xlink" version="1.1" id="mdi-case-sensitive-alt" width="24" height="24" viewBox="0 0 24 24"><path d="M20,14C20,12.5 19.5,12 18,12H16V11C16,10 16,10 14,10V15.4L14,19H16L18,19C19.5,19 20,18.47 20,17V14M12,12C12,10.5 11.47,10 10,10H6C4.5,10 4,10.5 4,12V19H6V16H10V19H12V12M10,7H14V5H10V7M22,9V20C22,21.11 21.11,22 20,22H4A2,2 0 0,1 2,20V9C2,7.89 2.89,7 4,7H8V5L10,3H14L16,5V7H20A2,2 0 0,1 22,9H22M16,17H18V14H16V17M6,12H10V14H6V12Z" /></svg>
